gama.ui.shared/icons_svg/light/views/open.view.svg

<svg height="25" viewBox="-597 -3555.641 25 25" width="25" xmlns="http://www.w3.org/2000/svg"><g fill="none"><path d="m-576.34-3555.1407h-16.32c-2.1208 0-3.84 1.7192-3.84 3.84v16.32c0 2.1207 1.7192 3.84 3.84 3.84h16.32c2.1208 0 3.84-1.7193 3.84-3.84v-16.32c0-2.1208-1.7192-3.84-3.84-3.84z" fill="#fff"/><path d="m-576.34-3555.1407h-16.32c-2.1208 0-3.84 1.7192-3.84 3.84v16.32c0 2.1207 1.7192 3.84 3.84 3.84h16.32c2.1208 0 3.84-1.7193 3.84-3.84v-16.32c0-2.1208-1.7192-3.84-3.84-3.84z" stroke="#000" stroke-linecap="round" stroke-linejoin="round" stroke-width=".25"/><g fill="#5c76a1"><path d="m-574.93775-3537.8895c0 1.114-.90415 2.0181-2.01815 2.0181h-10.50244c-1.11402 0-2.01816-.9041-2.01816-2.0181v-10.5025c0-1.114.90414-2.018 2.01816-2.018h10.50244c1.114 0 2.01815.904 2.01815 2.018zm-.80725-9.2915v-1.211c0-.67-.5409-1.211-1.2109-1.211h-10.50244c-.67006 0-1.21086.541-1.21086 1.211v1.211zm0 .807h-12.9242v8.4845c0 .67.5408 1.2109 1.21086 1.2109h10.50244c.67 0 1.2109-.5409 1.2109-1.2109zm-12.117-2.4216h.8073v.8073h-.8073zm1.61455 0h.80725v.8073h-.80725zm1.61455 0h.8072v.8073h-.8072z"/><path d="m-591.4794-3543.1407-2.4716-2.8805c-.1636-.1908-.1454-.4818.0454-.6452.19085-.1636.4816-.1454.6452.0454l2.726 3.1804c.1454.1726.1454.418 0 .5906l-2.726 3.1895c-.1636.1908-.45435.209-.6452.0455-.1908-.1637-.209-.4544-.0454-.6452z"/></g></g></svg>

<?xml version="1.0" encoding="UTF-8" standalone="no"?>
<!DOCTYPE svg PUBLIC "-//W3C//DTD SVG 1.1//EN" "http://www.w3.org/Graphics/SVG/1.1/DTD/svg11.dtd">
<svg xmlns:dc="http://purl.org/dc/elements/1.1/" xmlns:xl="http://www.w3.org/1999/xlink" version="1.1" xmlns="http://www.w3.org/2000/svg" viewBox="-597 -3555.6407 25 25" width="25" height="25">
  <defs/>
  <g id="SOURCES" stroke-dasharray="none" stroke="none" stroke-opacity="1" fill="none" fill-opacity="1">
    <title>SOURCES</title>
    <g id="SOURCES_Calque_2">
      <title>Calque 2</title>
      <g id="Group_9791">
        <g id="Graphic_9682">
          <path d="M -576.34 -3555.1407 L -592.66 -3555.1407 C -594.7808 -3555.1407 -596.5 -3553.4215 -596.5 -3551.3007 L -596.5 -3534.9807 C -596.5 -3532.86 -594.7808 -3531.1407 -592.66 -3531.1407 L -576.34 -3531.1407 C -574.2192 -3531.1407 -572.5 -3532.86 -572.5 -3534.9807 L -572.5 -3551.3007 C -572.5 -3553.4215 -574.2192 -3555.1407 -576.34 -3555.1407 Z" fill="white"/>
          <path d="M -576.34 -3555.1407 L -592.66 -3555.1407 C -594.7808 -3555.1407 -596.5 -3553.4215 -596.5 -3551.3007 L -596.5 -3534.9807 C -596.5 -3532.86 -594.7808 -3531.1407 -592.66 -3531.1407 L -576.34 -3531.1407 C -574.2192 -3531.1407 -572.5 -3532.86 -572.5 -3534.9807 L -572.5 -3551.3007 C -572.5 -3553.4215 -574.2192 -3555.1407 -576.34 -3555.1407 Z" stroke="black" stroke-linecap="round" stroke-linejoin="round" stroke-width=".25"/>
        </g>
        <g id="Group_9790">
          <g id="Group_9784">
            <title>window</title>
            <g id="Graphic_9785">
              <path d="M -574.93775 -3537.8895 C -574.93775 -3536.7755 -575.8419 -3535.8714 -576.9559 -3535.8714 L -587.45834 -3535.8714 C -588.57236 -3535.8714 -589.4765 -3536.7755 -589.4765 -3537.8895 L -589.4765 -3548.392 C -589.4765 -3549.506 -588.57236 -3550.41 -587.45834 -3550.41 L -576.9559 -3550.41 C -575.8419 -3550.41 -574.93775 -3549.506 -574.93775 -3548.392 L -574.93775 -3537.8895 Z M -575.745 -3547.181 L -575.745 -3548.392 C -575.745 -3549.062 -576.2859 -3549.603 -576.9559 -3549.603 L -587.45834 -3549.603 C -588.1284 -3549.603 -588.6692 -3549.062 -588.6692 -3548.392 L -588.6692 -3547.181 Z M -575.745 -3546.374 L -588.6692 -3546.374 L -588.6692 -3537.8895 C -588.6692 -3537.2195 -588.1284 -3536.6786 -587.45834 -3536.6786 L -576.9559 -3536.6786 C -576.2859 -3536.6786 -575.745 -3537.2195 -575.745 -3537.8895 Z M -587.862 -3548.7956 L -587.0547 -3548.7956 L -587.0547 -3547.9883 L -587.862 -3547.9883 Z M -586.24745 -3548.7956 L -585.4402 -3548.7956 L -585.4402 -3547.9883 L -586.24745 -3547.9883 Z M -584.6329 -3548.7956 L -583.8257 -3548.7956 L -583.8257 -3547.9883 L -584.6329 -3547.9883 Z" fill="#5c76a1"/>
            </g>
          </g>
          <g id="Group_9788">
            <title>chevron-right</title>
            <g id="Graphic_9789">
              <path d="M -591.4794 -3543.1407 L -593.951 -3546.0212 C -594.1146 -3546.212 -594.0964 -3546.503 -593.9056 -3546.6664 C -593.71475 -3546.83 -593.424 -3546.8118 -593.2604 -3546.621 L -590.5344 -3543.4406 C -590.389 -3543.268 -590.389 -3543.0226 -590.5344 -3542.85 L -593.2604 -3539.6605 C -593.424 -3539.4697 -593.71475 -3539.4515 -593.9056 -3539.615 C -594.0964 -3539.7787 -594.1146 -3540.0694 -593.951 -3540.2602 L -591.4794 -3543.1407 Z" fill="#5c76a1"/>
            </g>
          </g>
        </g>
      </g>
    </g>
  </g>
</svg>
